X:1
T:O Rex gloriae - Marenzio
T:James Gibb editions
T:#
%%score [ 1 2 3 4 ]
L:1/8
Q:1/4=220
M:none
K:C
V:1 treble nm="Soprano" snm="S"
V:2 treble nm="Alto" snm="A"
V:3 treble-8 nm="Tenor" snm="T"
V:4 bass nm="Bass" snm="B"
V:1
 G8 A8 | B6 B2"^O Rex gloriae" B8 | z8 z4 d4- | d4 d4 B4 d4 | c8 B4 B4- | %5
w: O Rex|glo- ri- ae,|Do\-|* mi- ne vir-|tu- tum, Do\-|
 B4 B4 G4"^Luca Marenzio\n(1556-1599)" B4 | (A8 G6 A2 | B4 A6 GF A4- | A2 G2 G8 ^F4) | (G6 A2 B8) | %10
w: * mi- ne vir-|tu\- * *|||tum, * *|
 z4 G8 ^F4 | G6 G2 (G6 A2 | B8 z8 | z8 G8 | A8 B6 B2 | B16 | z16 | z4 d8 A4 | B4 c4 d8 | %19
w: O Rex|glo- ri- ae, *||O|Rex glo- ri-|ae,||Do- mi-|ne vir- tu-|
 G4 d4 c4 B4 | c4 G2 G2 A4 c4 | F12 A4 | G12 G4 | G8 C4 D4 | E4 F4 G4 A4 | B4 c4 d8 | e8 c8- | %27
w: tum, qui tri- um-|pha- tor, qui tri- um-|pha- tor|ho- di-|e su- per|o- mnes cae- los|as- cen- di-|sti, ho\-|
 c4 c4 c8- | c16 | z8 z4 G4- | G4 A8 G4 | F12 E4 | E8 F8- | F4 G4 G8- | G16 | z16 | z8 z4 G4- | %37
w: * di- e,||ne|* de- re-|lin- quas|nos or\-|* pha- nos:|||Pa\-|
 G2 G2 F4 E8 ||[M:3/2] e6 d2 c4 | B6 A2 ^G4 | A8 z4 | z12 |[M:3/2] d6 c2 B4 | A6 G2 ^F4 | G12- | %45
w: * tris in nos,|Spi- ri- tum|ve- ri- ta-|tis,||Spi- ri- tum|ve- ri- ta-|tis,|
 G12 || z4 G4 A8- | A4 A4 A4 B4 | B4 B4 c4 G4 | G4 ^G4 A8 | z4 e4 c4 e4 | A4 z2 A2 F4 A4 | %52
w: |al- le\-|* lu- ia, al-|le- lu- ia, al-|le- lu- ia,|al- le- lu-|ia, al- le- lu-|
 D4[Q:1/4=217] d4[Q:1/4=213] B4[Q:1/4=208] d4- | %53
w: ia, al- le- lu\-|
[Q:1/4=204] d4[Q:1/4=201] c2[Q:1/4=199] B2[Q:1/4=194] A8) |[Q:1/4=190] !fermata!B16 |] %55
w: |ia.|
V:2
 z4 G8 ^F4 | G6 G2 G8 | z16 | z4 G8 D4 | E4 F4 (G6 FE | D6 CB, C4) B,4 | z8 z4 G4- | G4 F4 F4 E4 | %8
w: O Rex|glo- ri- ae,||Do- mi-|ne vir- tu\- * *|* * * * tum,|Do-|* mi- ne vir-|
 D16 | D16 | G,8 A,8 | B,6 B,2 B,6 A,2 | G,8 z8 | z8 z4 G4- | G4 ^F4 G6 G2 | G16 | z8 z4 G4- | %17
w: tu-|tum,|O Rex|glo- ri- ae, *||O|* Rex glo- ri-|ae,|Do\-|
 G4 F4 D4 F4 | E8 D8 | z4 D4 E4 G4 | F4 E4 z4 E4 | D4 C4 D4 F4 | E12 E4 | E8 A,4 B,4 | %24
w: * mi- ne vir-|tu- tum,|qui tri- um-|pha- tor, qui|tri- um- pha- tor|ho- di-|e su- per|
 C4 D4 E4 F4 | G4 A4 F8 | E8 E8- | E4 E4 E8- | E16 | z16 | z4 F4 F4 D4 | D12 B,4 | B,8 D8- | %33
w: o- mnes cae- los|as- cen- di-|sti, ho\-|* di- e,|||ne de- re-|lin- quas|nos or\-|
 D4 E4 E8- | E16 | z16 | G6 G2 F4 E4 | z16 ||[M:3/2] G6 F2 E4 | D6 C2 B,4 | A,8 z4 | z12 | %42
w: * pha- nos:|||Pa- tris in nos,||Spi- ri- tum|ve- ri- ta-|tis,||
[M:3/2] F6 E2 D4 | C6 B,2 A,4 | G,8 z4 | D4 E8- || E4 E4 F4 F,4 | F4 E4 F4 D4 | G4 G4 G6 F2 | %49
w: Spi- ri- tum|ve- ri- ta-|tis,|al- le\-|* lu- ia, ~al-|le- lu- ia, al-|le- lu- ia *|
 E8 z4 E4 | C4 E4 E4 A4 | F4 A4 D4 ^F4 | G4 D4 G,4 G4 | ^F4 (G6 FE F4) | !fermata!G16 |] %55
w: * al-|le- lu- ia, al-|le- lu- ia, al-|le- lu- ia, al-|le- lu\- * * *|ia.|
V:3
 z16 | z8 G8 | A8 B6 B2 | B8 z8 | z16 | z8 z4 d4- | d4 G4 B4 c4 | (d6 cB A2 B2 c4) | (B8 A8) | %9
w: |O|Rex glo- ri-|ae,||Do\-|* mi- ne vir-|tu\- * * * * *|tum, *|
 z8 z4 d4- | d4 ^c4 d6 d2 | d8 z4 d4- | d4 d4 B4 d4 | c8 B8 | z16 | z8 z4 d4- | d4 A4 B4 c4 | %17
w: O|* Rex glo- ri-|ae, Do\-|* mi- ne vir-|tu- tum,||Do\-|* mi- ne vir-|
 d8 D8 | z8 z4 d4 | c4 B4 c4 d4 | z8 c8 | A4 A4 _B4 c4 | c12 c4 | c8 z8 | z16 | z16 | z4 G8 G4 | %27
w: tu- tum,|qui|tri- um- pha- tor,|qui|tri- um- pha- tor|ho- di-|e,|||ho- di-|
 G8 C4 D4 | E4 F4 G4 A4 | B4 c4 d8 | e4 c4 c4 B4 | A12 ^G4 | ^G8 A8- | A4 c4 c8 | z4 G4 c8 | %35
w: e su- per|o- mnes cae- los|as- cen- di-|sti, ne de- re-|lin- quas|nos or\-|* pha- nos:|sed mit-|
 c4 A4 c8 | B4 d6 d2 c4 | B8 c6 A2 ||[M:3/2] G8 z4 | z12 | e6 d2 c4 | B6 A2 ^G4 | %42
w: te pro- mis-|sum Pa- tris in|nos, Spi- ri-|tum,||Spi- ri- tum|ve- ri- ta-|
[M:3/2][K:treble-8] A8 z4 | z12 | z4 B4 B4 | B4 c8- || c8 z4 c4 | c4 ^c4 d4 B4 | e4 d4 c4 B4 | %49
w: tis,||al- le-|lu- ia,|* al-|le- lu- ia, al-|le- lu- ia, al-|
 c4 B4 (A2 B2 c2 d2 | e4) c4 A4 c4 | F8 A4 (d4- | d2 c2 B2 c2 d8) | d16 | !fermata!d16 |] %55
w: le- lu- ia, * * *|* al- le- lu-|ia, al- le\-||lu-|ia.|
V:4
 z16 | z8 z4 G,4- | G,4 ^F,4 G,6 G,2 | G,8 z8 | z8 z4 G,4- | G,4 G,4 E,4 G,4 | =F,8 E,8 | %7
w: |O|* Rex glo- ri-|ae,|Do\-|* mi- ne vir-|tu- tum,|
 z4 D,8 A,,4 | B,,4 C,4 D,8 | G,,8 G,8 | E,8 D,6 D,2 | G,16 | z4 G,8 D,4 | E,4 =F,4 G,8 | %14
w: Do- mi-|ne vir- tu-|tum, O|Rex glo- ri-|ae,|Do- mi-|ne vir- tu-|
 D,8 z4 G,4- | G,4 G,4 E,4 G,4 | =F,8 E,8 | z16 | z8 z4 D,4 | E,4 G,4 C,4 G,,2 G,2 | %20
w: tum, Do\-|* mi- ne vir-|tu- tum,||qui|tri- um- pha- tor, qui|
 A,4 C4 F,4 C,2 C,2 | D,4 F,4 _B,,4 F,,4 | C,12 C,4 | C,8 z8 | z16 | z16 | z4 C,8 C,4 | %27
w: tri- um- pha- tor, qui|tri- um- pha- tor|ho- di-|e,|||ho- di-|
 C,8 A,,4 B,,4 | C,4 D,4 E,4 F,4 | G,4 A,4 B,8 | C4 F,4 F,4 G,4 | D,12 E,4 | E,8 D,8- | %33
w: e su- per|o- mnes cae- los|as- cen- di-|sti, ne de- re-|lin- quas|nos or\-|
 D,4 C,4 C,8- | C,8 z4 C,4 | F,8 F,4 E,4 | G,8 D,4 E,4- | E,2 E,2 D,4 C,8- ||[M:3/2] C,8 z4 | z12 | %40
w: * pha- nos:|* sed|mit- te pro-|mis- sum Pa\-|* tris in nos,|||
 C6 B,2 A,4 | G,6 F,2 E,4 |[M:3/2] D,8 z4 | z12 | z4 G,4 E,4 | G,4 C,4 C4 || A,4 C4 F,4 A,4 | %47
w: Spi- ri- tum|ve- ri- ta-|tis,||al- le-|lu- ia, al-|le- lu- ia, al-|
 F,4 A,4 D,4 G,4 | E,4 G,4 C,4 E,4 | C,4 E,4 A,,8- | A,,16 | D,16 | B,,16 | D,16 | %54
w: le- lu- ia, al-|le- lu- ia, al-|le- lu- ia,||al-|le-|lu-|
 !fermata!G,,16 |] %55
w: ia.|

